images/plus.svg

<?xml version="1.0"?>
<svg xmlns="http://www.w3.org/2000/svg" height="512px" viewBox="0 0 426.66667 426.66667" width="512px" class=""><g><path d="m405.332031 192h-170.664062v-170.667969c0-11.773437-9.558594-21.332031-21.335938-21.332031-11.773437 0-21.332031 9.558594-21.332031 21.332031v170.667969h-170.667969c-11.773437 0-21.332031 9.558594-21.332031 21.332031 0 11.777344 9.558594 21.335938 21.332031 21.335938h170.667969v170.664062c0 11.777344 9.558594 21.335938 21.332031 21.335938 11.777344 0 21.335938-9.558594 21.335938-21.335938v-170.664062h170.664062c11.777344 0 21.335938-9.558594 21.335938-21.335938 0-11.773437-9.558594-21.332031-21.335938-21.332031zm0 0" data-original="#000000" class="active-path" data-old_color="#000000" fill="#C12020"/></g> </svg>

<svg xmlns="http://www.w3.org/2000/svg" height="512" viewBox="0 0 426.667 426.667" width="512"><path d="M405.332 192H234.668V21.332C234.668 9.559 225.109 0 213.332 0 201.559 0 192 9.559 192 21.332V192H21.332C9.559 192 0 201.559 0 213.332c0 11.777 9.559 21.336 21.332 21.336H192v170.664c0 11.777 9.559 21.336 21.332 21.336 11.777 0 21.336-9.559 21.336-21.336V234.668h170.664c11.777 0 21.336-9.559 21.336-21.336 0-11.773-9.559-21.332-21.336-21.332zm0 0" data-original="#000000" class="active-path" data-old_color="#000000" fill="#C12020"/></svg>
